packages/merlin-www-assets/imports/gq/icons/figure-expand.svg

<svg viewBox="0 0 40 40" xmlns="http://www.w3.org/2000/svg"><path d="m20 40h-20v-20h2v16.59l34.59-34.59h-16.59v-2h20v20h-2v-16.59l-34.59 34.59h16.59z"/></svg>

<svg id="gallery-expand" xmlns="http://www.w3.org/2000/svg" viewBox="0 0 40 40"><title>gallery-expand</title><path class="cls-1" d="M20,40H0V20H2V36.59L36.59,2H20V0H40V20H38V3.41L3.41,38H20v2Z"/></svg>
